X: 1
T: Devils Of Dublin
M: 4/4
L: 1/8
R: reel
K: Dmaj
|:d2dA BAGB|AFBF A~F3|Ad(3ddd Adfd|(3efe df e~B3|
|d2dA BAGB|AFBF A~F3|ABde fdce|1 dBAG FDFA:|2 dBAG FDD2||
|:agfe~f3e|dcBA BAFB|Ad(3ddd Adfd|(3efe df e~B3|
|a2ag ~f3e|dcBA BAFB|ABde fdce|1 dBAG FDD2:|2 dBAG FDFA||
